ui/StatusQ/src/assets/img/icons/qr-scan.svg

<svg fill="none" height="16" viewBox="0 0 16 16" width="16" xmlns="http://www.w3.org/2000/svg"><g fill="#4360df"><path d="m.50293 8.00049c0-.27614.223857-.5.5-.5h13.99397c.2761 0 .5.22386.5.5s-.2239.5-.5.5h-13.99397c-.276143 0-.5-.22386-.5-.5z"/><g clip-rule="evenodd" fill-rule="evenodd"><path d="m1.33323 4.5026c0-1.7489 1.41777-3.16666 3.16667-3.16666h1.33333c.27614 0 .5.22386.5.5s-.22386.5-.5.5h-1.33333c-1.19662 0-2.16667.97005-2.16667 2.16666v1.19147c0 .27614-.22386.5-.5.5s-.5-.22386-.5-.5z"/><path d="m1.33323 11.5005c0 1.7489 1.41777 3.1667 3.16667 3.1667h1.33333c.27614 0 .5-.2239.5-.5 0-.2762-.22386-.5-.5-.5h-1.33333c-1.19662 0-2.16667-.9701-2.16667-2.1667v-1.1915c0-.2761-.22386-.49998-.5-.49998s-.5.22388-.5.49998z"/><path d="m14.6666 4.5026c0-1.7489-1.4178-3.16666-3.1667-3.16666h-1.3333c-.27618 0-.50004.22386-.50004.5s.22386.5.50004.5h1.3333c1.1966 0 2.1667.97005 2.1667 2.16666v1.19147c0 .27614.2238.5.5.5.2761 0 .5-.22386.5-.5z"/><path d="m14.6666 11.5005c0 1.7489-1.4178 3.1667-3.1667 3.1667h-1.3333c-.27618 0-.50004-.2239-.50004-.5 0-.2762.22386-.5.50004-.5h1.3333c1.1966 0 2.1667-.9701 2.1667-2.1667v-1.1915c0-.2761.2238-.49998.5-.49998.2761 0 .5.22388.5.49998z"/></g></g></svg>

<svg xmlns="http://www.w3.org/2000/svg" width="16" height="16" viewBox="0 0 16 16" fill="none">
  <path d="M0.50293 8.00049C0.50293 7.72435 0.726787 7.50049 1.00293 7.50049H14.9969C15.273 7.50049 15.4969 7.72435 15.4969 8.00049C15.4969 8.27663 15.273 8.50049 14.9969 8.50049H1.00293C0.726787 8.50049 0.50293 8.27663 0.50293 8.00049Z" fill="#4360DF"/>
  <path fill-rule="evenodd" clip-rule="evenodd" d="M1.33323 4.5026C1.33323 2.7537 2.751 1.33594 4.4999 1.33594H5.83323C6.10937 1.33594 6.33323 1.5598 6.33323 1.83594C6.33323 2.11208 6.10937 2.33594 5.83323 2.33594H4.4999C3.30328 2.33594 2.33323 3.30599 2.33323 4.5026V5.69407C2.33323 5.97021 2.10937 6.19407 1.83323 6.19407C1.55709 6.19407 1.33323 5.97021 1.33323 5.69407V4.5026Z" fill="#4360DF"/>
  <path fill-rule="evenodd" clip-rule="evenodd" d="M1.33323 11.5005C1.33323 13.2494 2.751 14.6672 4.4999 14.6672H5.83323C6.10937 14.6672 6.33323 14.4433 6.33323 14.1672C6.33323 13.891 6.10937 13.6672 5.83323 13.6672H4.4999C3.30328 13.6672 2.33323 12.6971 2.33323 11.5005V10.309C2.33323 10.0329 2.10937 9.80902 1.83323 9.80902C1.55709 9.80902 1.33323 10.0329 1.33323 10.309V11.5005Z" fill="#4360DF"/>
  <path fill-rule="evenodd" clip-rule="evenodd" d="M14.6666 4.5026C14.6666 2.7537 13.2488 1.33594 11.4999 1.33594H10.1666C9.89042 1.33594 9.66656 1.5598 9.66656 1.83594C9.66656 2.11208 9.89042 2.33594 10.1666 2.33594H11.4999C12.6965 2.33594 13.6666 3.30599 13.6666 4.5026V5.69407C13.6666 5.97021 13.8904 6.19407 14.1666 6.19407C14.4427 6.19407 14.6666 5.97021 14.6666 5.69407V4.5026Z" fill="#4360DF"/>
  <path fill-rule="evenodd" clip-rule="evenodd" d="M14.6666 11.5005C14.6666 13.2494 13.2488 14.6672 11.4999 14.6672H10.1666C9.89042 14.6672 9.66656 14.4433 9.66656 14.1672C9.66656 13.891 9.89042 13.6672 10.1666 13.6672H11.4999C12.6965 13.6672 13.6666 12.6971 13.6666 11.5005V10.309C13.6666 10.0329 13.8904 9.80902 14.1666 9.80902C14.4427 9.80902 14.6666 10.0329 14.6666 10.309V11.5005Z" fill="#4360DF"/>
</svg>
